svg/fluentui-system-icons/ic_fluent_slide_text_sparkle_20_regular.svg

<svg width="20" height="20" viewBox="0 0 20 20" fill="none" xmlns="http://www.w3.org/2000/svg">
<path d="M14.8777 1.28225L15.226 2.35305C15.3343 2.67859 15.5171 2.97441 15.7599 3.21699C16.0026 3.45957 16.2987 3.64223 16.6245 3.75044L17.6961 4.09845L17.7175 4.10381C17.8001 4.13292 17.8716 4.18692 17.9222 4.25836C17.9728 4.3298 18 4.41516 18 4.50268C18 4.5902 17.9728 4.67556 17.9222 4.747C17.8716 4.81844 17.8001 4.87244 17.7175 4.90155L16.6459 5.24956C16.3201 5.35778 16.0241 5.54044 15.7813 5.78302C15.5385 6.0256 15.3558 6.32141 15.2475 6.64696L14.8992 7.71775C14.87 7.80029 14.816 7.87175 14.7445 7.92231C14.673 7.97286 14.5876 8.00001 14.5 8.00001C14.4124 8.00001 14.327 7.97286 14.2555 7.92231C14.2484 7.91732 14.2416 7.91213 14.2349 7.90675C14.1736 7.85755 14.1271 7.79215 14.1008 7.71775L13.7525 6.64696C13.7338 6.59014 13.7128 6.53422 13.6897 6.47932C13.5796 6.21872 13.4202 5.98116 13.2197 5.77999C13.1815 5.74173 13.1421 5.70496 13.1014 5.66973C12.883 5.48064 12.6292 5.33588 12.3541 5.24421L11.2825 4.8962C11.1999 4.86708 11.1284 4.81308 11.0778 4.74164C11.0272 4.6702 11 4.58484 11 4.49733C11 4.40981 11.0272 4.32445 11.0778 4.25301C11.1284 4.18157 11.1999 4.12757 11.2825 4.09845L12.3541 3.75044C12.6759 3.63941 12.9677 3.45549 13.2066 3.21307C13.4454 2.97065 13.625 2.67631 13.7311 2.35305L14.0794 1.28225C14.1085 1.19972 14.1626 1.12825 14.2341 1.0777C14.3056 1.02715 14.391 1 14.4786 1C14.5662 1 14.6516 1.02715 14.7231 1.0777C14.7946 1.12825 14.8486 1.19972 14.8777 1.28225ZM19.7829 9.21319L19.0175 8.96461C18.7848 8.88731 18.5733 8.75684 18.3999 8.58357C18.2265 8.4103 18.0959 8.199 18.0186 7.96647L17.7698 7.20161C17.749 7.14266 17.7104 7.09161 17.6593 7.05551C17.6083 7.0194 17.5473 7.00001 17.4847 7.00001C17.4221 7.00001 17.3611 7.0194 17.31 7.05551C17.259 7.09161 17.2204 7.14266 17.1996 7.20161L16.9508 7.96647C16.875 8.19737 16.7467 8.40762 16.5761 8.58077C16.4055 8.75392 16.1971 8.8853 15.9672 8.96461L15.2018 9.21319C15.1428 9.23398 15.0917 9.27255 15.0555 9.32358C15.0194 9.37461 15 9.43558 15 9.4981C15 9.56061 15.0194 9.62158 15.0555 9.67261C15.0917 9.72364 15.1428 9.76221 15.2018 9.78301L15.9672 10.0316C16.2003 10.1093 16.412 10.2403 16.5855 10.4143C16.7589 10.5882 16.8893 10.8003 16.9661 11.0335L17.2149 11.7984C17.2357 11.8574 17.2743 11.9084 17.3254 11.9445C17.3764 11.9806 17.4374 12 17.5 12C17.5626 12 17.6236 11.9806 17.6746 11.9445C17.7257 11.9084 17.7643 11.8574 17.7851 11.7984L18.0339 11.0335C18.1113 10.801 18.2418 10.5897 18.4152 10.4164C18.5886 10.2432 18.8001 10.1127 19.0328 10.0354L19.7982 9.78683C19.8572 9.76603 19.9083 9.72746 19.9445 9.67643C19.9806 9.62541 20 9.56443 20 9.50192C20 9.43941 19.9806 9.37844 19.9445 9.32741C19.9083 9.27638 19.8572 9.23781 19.7982 9.21701L19.7829 9.21319ZM17 12.9009C17.1576 12.9654 17.3276 12.9993 17.5018 13C17.6746 12.9996 17.8433 12.9785 18 12.9211V13.5C18 14.8807 16.8807 16 15.5 16H4.5C3.11929 16 2 14.8807 2 13.5V6.5C2 5.11929 3.11929 4 4.5 4H10.088C10.03 4.15614 10 4.32279 10 4.49611C10 4.67231 10.031 4.84162 10.0909 5H4.5C3.67157 5 3 5.67157 3 6.5V13.5C3 14.3284 3.67157 15 4.5 15H15.5C16.3284 15 17 14.3284 17 13.5V12.9009ZM5 7.5C5 7.22386 5.22386 7 5.5 7H9.5C9.77614 7 10 7.22386 10 7.5C10 7.77614 9.77614 8 9.5 8H5.5C5.22386 8 5 7.77614 5 7.5ZM5 10C5 9.72386 5.22386 9.5 5.5 9.5H12.5C12.7761 9.5 13 9.72386 13 10C13 10.2761 12.7761 10.5 12.5 10.5H5.5C5.22386 10.5 5 10.2761 5 10ZM5.5 12C5.22386 12 5 12.2239 5 12.5C5 12.7761 5.22386 13 5.5 13H10.5C10.7761 13 11 12.7761 11 12.5C11 12.2239 10.7761 12 10.5 12H5.5Z" fill="#212121"/>
</svg>

<svg xmlns="http://www.w3.org/2000/svg" width="20" height="20"><path d="m14.878 1.282.348 1.071a2.205 2.205 0 0 0 1.399 1.397l1.071.348.021.006a.423.423 0 0 1 0 .798l-1.071.348a2.208 2.208 0 0 0-1.399 1.397l-.348 1.07a.423.423 0 0 1-.798 0l-.349-1.07a2.23 2.23 0 0 0-.532-.867 2.224 2.224 0 0 0-.866-.536l-1.071-.348a.423.423 0 0 1 0-.798l1.071-.348a2.208 2.208 0 0 0 1.377-1.397l.348-1.07a.423.423 0 0 1 .799 0Zm4.905 7.931-.766-.248a1.577 1.577 0 0 1-.998-.999l-.25-.764a.302.302 0 0 0-.57 0l-.248.764a1.576 1.576 0 0 1-.984.999l-.765.248a.303.303 0 0 0 0 .57l.765.249a1.578 1.578 0 0 1 1 1.002l.248.764a.302.302 0 0 0 .57 0l.249-.764a1.576 1.576 0 0 1 .999-.999l.765-.248a.303.303 0 0 0 0-.57l-.015-.004ZM17 12.901a1.453 1.453 0 0 0 1 .02v.579a2.5 2.5 0 0 1-2.5 2.5h-11A2.5 2.5 0 0 1 2 13.5v-7A2.5 2.5 0 0 1 4.5 4h5.588a1.419 1.419 0 0 0-.088.496c0 .176.031.346.09.504H4.5A1.5 1.5 0 0 0 3 6.5v7A1.5 1.5 0 0 0 4.5 15h11a1.5 1.5 0 0 0 1.5-1.5v-.6ZM5 7.5a.5.5 0 0 1 .5-.5h4a.5.5 0 0 1 0 1h-4a.5.5 0 0 1-.5-.5ZM5 10a.5.5 0 0 1 .5-.5h7a.5.5 0 0 1 0 1h-7A.5.5 0 0 1 5 10Zm.5 2a.5.5 0 0 0 0 1h5a.5.5 0 0 0 0-1h-5Z"/></svg>
